packages/katcn/src/icons/svg/backpack-solid.svg

<svg width="24" height="25" viewBox="0 0 24 25" fill="none" xmlns="http://www.w3.org/2000/svg">
<path d="M18.5 17.108C17.8 17.308 17 17.408 16.2 17.408H7.8C7 17.408 6.2 17.308 5.5 17.108C5.1 17.008 4.8 16.908 4.5 16.708C4.1 16.508 3.8 16.408 3.5 16.108V18.708C3.5 20.608 5.1 22.208 7 22.208H17C18.9 22.208 20.5 20.608 20.5 18.708V16.108C20.2 16.308 19.8 16.508 19.5 16.708C19.2 16.808 18.8 17.008 18.5 17.108Z" fill="black"/>
<path d="M18.7 2.20801H5.3C3.5 2.20801 2 3.70801 2 5.50801V9.60801C2 11.308 2.7 12.808 3.8 13.808C4.1 14.108 4.4 14.308 4.8 14.608C5.7 15.108 6.7 15.408 7.8 15.408H16.1C17.2 15.408 18.2 15.108 19.1 14.608C19.5 14.408 19.8 14.108 20.1 13.808C21.2 12.708 21.9 11.208 21.9 9.60801V5.50801C22 3.70801 20.5 2.20801 18.7 2.20801Z" fill="black"/>
<path d="M14.5 12.308H9.5C8.9 12.308 8.5 11.908 8.5 11.308C8.5 10.708 9 10.308 9.5 10.308H14.5C15.1 10.308 15.5 10.708 15.5 11.308C15.5 11.908 15.1 12.308 14.5 12.308Z" fill="white"/>
</svg>

<svg xmlns="http://www.w3.org/2000/svg" fill="none" viewBox="0 0 24 25"><path fill="#000" d="M18.5 17.108c-.7.2-1.5.3-2.3.3H7.8c-.8 0-1.6-.1-2.3-.3-.4-.1-.7-.2-1-.4-.4-.2-.7-.3-1-.6v2.6c0 1.9 1.6 3.5 3.5 3.5h10c1.9 0 3.5-1.6 3.5-3.5v-2.6c-.3.2-.7.4-1 .6-.3.1-.7.3-1 .4m.2-14.9H5.3c-1.8 0-3.3 1.5-3.3 3.3v4.1c0 1.7.7 3.2 1.8 4.2.3.3.6.5 1 .8.9.5 1.9.8 3 .8h8.3c1.1 0 2.1-.3 3-.8.4-.2.7-.5 1-.8 1.1-1.1 1.8-2.6 1.8-4.2v-4.1c.1-1.8-1.4-3.3-3.2-3.3"/><path fill="#fff" d="M14.5 12.308h-5c-.6 0-1-.4-1-1s.5-1 1-1h5c.6 0 1 .4 1 1s-.4 1-1 1"/></svg>
